public/favicon.svg

<svg width="600" height="600" fill="none" xmlns="http://www.w3.org/2000/svg"><g clip-path="url(#a)"><path d="M300.932 65.68v476.613c-56.445-34.946-157.503-96.648-184.603-208.104-33.566-138.069-29.75-214.345-29.75-214.345s25.935-7.63 99.93-26.703c78.332-20.183 114.423-27.46 114.423-27.46Z" fill="red"/><path d="M484.213 333.855c-27.091 111.456-128.149 173.159-184.594 208.104V65.346s36.091 7.27 114.423 27.46c73.986 19.074 99.931 26.704 99.931 26.704s3.815 76.276-29.751 214.345h-.009Z" fill="#0F1D24"/><path d="M483.871 338.698c-27.09 111.456-128.149 173.158-184.594 208.104V70.189s36.091 7.269 114.423 27.46c73.986 19.074 99.931 26.704 99.931 26.704s3.815 76.276-29.751 214.345h-.009Z" fill="#070707"/><path d="M299.621 184.522c-51.359 0-92.996 41.637-92.996 92.996 0 51.359 41.637 92.996 92.996 92.996 51.359 0 92.996-41.637 92.996-92.996 0-51.359-41.637-92.996-92.996-92.996Zm0 172.979c-44.171 0-79.992-35.812-79.992-79.992 0-44.18 35.812-79.992 79.992-79.992 44.18 0 79.991 35.812 79.991 79.992 0 44.18-35.811 79.992-79.991 79.992Z" fill="#FDFEFE"/><g filter="url(#b)"><path d="M299.621 240.399c-20.498 0-37.119 16.621-37.119 37.119s16.621 37.119 37.119 37.119 37.119-16.621 37.119-37.119-16.621-37.119-37.119-37.119Zm0 64.065c-14.88 0-26.946-12.066-26.946-26.946s12.066-26.946 26.946-26.946 26.946 12.066 26.946 26.946-12.066 26.946-26.946 26.946Z" fill="#FDFEFE"/></g><path d="m531.569 118.744-.676-13.6-13.059-3.842c-1.064-.315-26.901-7.882-99.831-26.676-77.368-19.939-113.107-27.19-114.595-27.487l-3.787-.767-3.788.767c-1.488.297-37.218 7.548-114.594 27.487-72.931 18.794-98.768 26.37-99.832 26.676l-13.058 3.842-.677 13.6c-.162 3.201-3.544 80.099 30.049 218.285 12.436 51.143 41.096 98.335 85.195 140.27 36.515 34.72 76.168 59.258 105.134 77.178l11.571 7.16 11.57-7.16c28.957-17.92 68.62-42.467 105.134-77.178 44.099-41.935 72.759-89.127 85.196-140.27 33.592-138.186 30.211-215.075 30.048-218.285Zm-39.364 216.022c-11.995 49.32-39.744 94.944-82.481 135.58-35.793 34.034-74.968 58.275-103.565 75.978l-6.529 4.04-6.53-4.04c-28.605-17.703-67.78-41.944-103.574-75.978-42.737-40.645-70.495-86.26-82.48-135.58-33.269-136.852-29.959-212.397-29.797-215.545l.343-6.799 6.53-1.921c.26-.072 26.747-7.837 99.515-26.595 77.124-19.876 113.729-27.307 114.09-27.38l1.894-.378 1.893.379c.361.072 36.975 7.503 114.09 27.38 72.768 18.757 99.254 26.513 99.516 26.594l6.529 1.921.343 6.799c.153 3.148 3.472 78.693-29.796 215.536l.009.009Z" fill="#0D1A20"/><path d="M285.677 558.661c-29.129-18.027-69.016-42.71-105.865-77.746-44.739-42.539-73.832-90.471-86.467-142.47C59.581 199.556 63 122.098 63.17 118.87l.84-16.792 16.133-4.744c1.064-.316 26.883-7.882 99.976-26.72C257.684 50.62 293.46 43.368 294.948 43.07l4.68-.938 4.681.947c1.488.298 37.335 7.576 114.829 27.542 73.092 18.84 98.911 26.405 99.976 26.721l16.133 4.744.839 16.792c.162 3.228 3.589 80.686-30.175 219.575-12.644 51.999-41.736 99.931-86.467 142.47-36.848 35.036-76.736 59.728-105.865 77.746l-13.942 8.63-13.942-8.63-.018-.009ZM81.748 119.798c-.153 3.121-3.427 78.098 29.67 214.246 11.778 48.464 39.103 93.348 81.209 133.38 35.451 33.71 74.4 57.815 102.835 75.41l4.157 2.57 4.158-2.57c28.443-17.604 67.384-41.7 102.834-75.41 42.106-40.041 69.423-84.916 81.209-133.38 33.115-136.229 29.824-211.125 29.67-214.246l-.18-3.598-3.454-1.019c-.262-.072-26.73-7.828-99.372-26.55C337.577 68.81 300.99 61.379 300.629 61.306l-1.001-.198-1.001.198c-.361.072-36.947 7.503-113.855 27.326-72.633 18.721-99.11 26.477-99.372 26.549l-3.463 1.019-.18 3.598h-.009Z" fill="#0D1A20"/><path fill-rule="evenodd" clip-rule="evenodd" d="m520.603 127.852-.649-12.95-12.446-3.662c-1.01-.297-25.629-7.512-95.106-25.413-73.715-19.001-107.758-25.91-109.174-26.19l-3.608-.73-3.607.73-.032.008c-1.838.374-35.917 7.316-109.142 26.182-69.486 17.91-94.096 25.116-95.106 25.413l-12.446 3.662-.649 12.95c-.153 3.057-3.373 76.312 28.633 207.969 11.841 48.725 39.157 93.69 81.164 133.641 34.783 33.079 72.569 56.463 100.165 73.534l11.02 6.827 11.021-6.827c27.586-17.071 65.373-40.455 100.165-73.534 42.016-39.951 69.323-84.916 81.164-133.641 32.006-131.657 28.786-204.912 28.633-207.969Zm-37.507 205.804c-11.426 46.994-37.867 90.453-78.585 129.177-34.092 32.425-71.412 55.518-98.664 72.382l-.013.008-.804.497V370.505h-4.099c48.407-.669 87.878-38.327 91.425-85.987h101.663a1260.215 1260.215 0 0 1-10.932 49.138h.009Zm-184.788 36.849h-4.1v165.22l-.81-.502c-27.253-16.864-64.571-39.96-98.677-72.39-40.727-38.724-67.159-82.183-78.585-129.177a1261.742 1261.742 0 0 1-10.933-49.138h101.68c3.547 47.66 43.018 85.318 91.425 85.987Zm1.289 168.559.014.009.015-.009h-.029ZM96.821 237.714a1057.425 1057.425 0 0 0 5.656 32.804h104.406c3.446-46.307 40.806-83.172 87.325-85.841V69.339c-10.623 2.263-44.914 9.813-105.097 25.326-69.323 17.865-94.565 25.26-94.808 25.332l-6.223 1.831-.325 6.475c-.096 2.008-1.544 34.866 6.987 95.411h77.11A9.468 9.468 0 0 1 178.5 221a9.5 9.5 0 0 1 9.5 9.5 9.5 9.5 0 0 1-9.5 9.5 9.462 9.462 0 0 1-6.182-2.286H96.821ZM305.03 69.342c10.642 2.267 44.928 9.817 105.082 25.323 69.332 17.865 94.565 25.26 94.808 25.332l6.223 1.831.324 6.475c.103 2.008 1.549 34.863-6.985 95.411h-77.355a9.244 9.244 0 0 0-6.102-2.287 9.287 9.287 0 1 0 6.102 16.287h75.276a1059.96 1059.96 0 0 1-5.657 32.804h-104.39c-3.447-46.307-40.807-83.172-87.326-85.841V69.342ZM178.435 234.055a3.342 3.342 0 1 0 0-6.683 3.342 3.342 0 0 0 0 6.683Zm8.116 122.012a8.116 8.116 0 1 1-16.233 0 8.116 8.116 0 0 1 16.233 0Zm-4.774 0a3.342 3.342 0 1 1-6.685 0 3.342 3.342 0 0 1 6.685 0ZM417.2 230.713a3.824 3.824 0 1 0 7.648 0 3.824 3.824 0 0 0-7.648 0Zm2.656 135.807a9.285 9.285 0 1 1 0-18.57 9.285 9.285 0 1 1 0 18.57Zm-.001-5.461a3.823 3.823 0 1 1 0-7.646 3.823 3.823 0 0 1 0 7.646Zm-200.218-84.782v2.464c.659 43.612 36.223 78.76 79.982 78.76 44.181 0 79.992-35.812 79.992-79.992 0-44.18-35.811-79.991-79.992-79.991-43.768 0-79.323 35.147-79.982 78.759Z" fill="#fff"/><path fill-rule="evenodd" clip-rule="evenodd" d="M402.241 181.397a8.01 8.01 0 1 0-12.546-9.206l-36.631 30.737 8.999 10.725 36.333-30.488a7.975 7.975 0 0 0 3.845-1.768Zm-7.778-4.146.213.254a3.298 3.298 0 1 0-.213-.254ZM198.998 183.2a8.01 8.01 0 1 1 12.546-9.206l36.632 30.737-8.999 10.725-36.334-30.487a7.967 7.967 0 0 1-3.845-1.769Zm7.769-4.134-.195.232a3.297 3.297 0 1 1 .195-.232Zm16.756 190.312c0-.454.171-.892.479-1.225l17.341-18.744a1.804 1.804 0 0 0-.099-2.549l-5.296-4.899a1.803 1.803 0 0 0-2.549.099l-20.419 22.071a.16.16 0 0 1-.118.052.16.16 0 0 0-.161.161v24.544a6.313 6.313 0 1 0 10.822-.004v-19.506Zm150.388-1.968c.309.333.48.77.48 1.224v19.505a6.313 6.313 0 1 0 10.822.004V363.6a.162.162 0 0 0-.162-.162.164.164 0 0 1-.12-.052l-20.418-22.072a1.803 1.803 0 0 0-2.548-.099l-5.296 4.9a1.802 1.802 0 0 0-.1 2.548l17.342 18.747Z" fill="#fff"/></g><defs><clipPath id="a"><path fill="#fff" transform="translate(63 26)" d="M0 0h473.24v547.442H0z"/></clipPath><filter id="b" x="262.502" y="229.577" width="101.293" height="99.489" filterUnits="userSpaceOnUse" color-interpolation-filters="sRGB"><feFlood flood-opacity="0" result="BackgroundImageFix"/><feColorMatrix in="SourceAlpha" values="0 0 0 0 0 0 0 0 0 0 0 0 0 0 0 0 0 0 127 0" result="hardAlpha"/><feOffset dx="14.429" dy="1.804"/><feGaussianBlur stdDeviation="6.313"/><feColorMatrix values="0 0 0 0 0.137255 0 0 0 0 0.121569 0 0 0 0 0.12549 0 0 0 0.45 0"/><feBlend in2="BackgroundImageFix" result="effect1_dropShadow_172_139"/><feBlend in="SourceGraphic" in2="effect1_dropShadow_172_139" result="shape"/></filter></defs></svg>

<svg width="600" height="600" viewBox="0 0 600 600" fill="none" xmlns="http://www.w3.org/2000/svg">
<g clip-path="url(#clip0_172_139)">
<path d="M300.932 65.6802V542.293C244.487 507.347 143.429 445.645 116.329 334.189C82.7634 196.12 86.5781 119.844 86.5781 119.844C86.5781 119.844 112.514 112.214 186.509 93.1406C264.841 72.9579 300.932 65.6802 300.932 65.6802Z" fill="#3CA2D5"/>
<path d="M484.213 333.855C457.122 445.311 356.064 507.014 299.619 541.959V65.3464C299.619 65.3464 335.71 72.6151 414.042 92.8069C488.028 111.88 513.973 119.51 513.973 119.51C513.973 119.51 517.788 195.786 484.222 333.855H484.213Z" fill="#0F1D24"/>
<path d="M483.871 338.698C456.781 450.154 355.722 511.856 299.277 546.802V70.1892C299.277 70.1892 335.368 77.4579 413.7 97.6497C487.686 116.723 513.631 124.353 513.631 124.353C513.631 124.353 517.446 200.629 483.88 338.698H483.871Z" fill="#0F1D24"/>
<path d="M299.621 184.522C248.262 184.522 206.625 226.159 206.625 277.518C206.625 328.877 248.262 370.514 299.621 370.514C350.98 370.514 392.617 328.877 392.617 277.518C392.617 226.159 350.98 184.522 299.621 184.522ZM299.621 357.501C255.45 357.501 219.629 321.689 219.629 277.509C219.629 233.329 255.441 197.517 299.621 197.517C343.801 197.517 379.612 233.329 379.612 277.509C379.612 321.689 343.801 357.501 299.621 357.501Z" fill="#FDFEFE"/>
<g filter="url(#filter0_d_172_139)">
<path d="M299.621 240.399C279.123 240.399 262.502 257.02 262.502 277.518C262.502 298.016 279.123 314.637 299.621 314.637C320.119 314.637 336.74 298.016 336.74 277.518C336.74 257.02 320.119 240.399 299.621 240.399ZM299.621 304.464C284.741 304.464 272.675 292.398 272.675 277.518C272.675 262.638 284.741 250.572 299.621 250.572C314.501 250.572 326.567 262.638 326.567 277.518C326.567 292.398 314.501 304.464 299.621 304.464Z" fill="#FDFEFE"/>
</g>
<path d="M531.569 118.744L530.893 105.144L517.834 101.302C516.77 100.987 490.933 93.4203 418.003 74.6264C340.635 54.6871 304.896 47.4365 303.408 47.1389L299.621 46.3723L295.833 47.1389C294.345 47.4365 258.615 54.6871 181.239 74.6264C108.308 93.4203 82.471 100.996 81.4069 101.302L68.3485 105.144L67.6721 118.744C67.5098 121.945 64.1279 198.843 97.7208 337.029C110.157 388.172 138.817 435.364 182.916 477.299C219.431 512.019 259.084 536.557 288.05 554.477L299.621 561.637L311.191 554.477C340.148 536.557 379.811 512.01 416.325 477.299C460.424 435.364 489.084 388.172 501.521 337.029C535.113 198.843 531.732 121.954 531.569 118.744ZM492.205 334.766C480.21 384.086 452.461 429.71 409.724 470.346C373.931 504.38 334.756 528.621 306.159 546.324L299.63 550.364L293.1 546.324C264.495 528.621 225.32 504.38 189.526 470.346C146.789 429.701 119.031 384.086 107.046 334.766C73.7774 197.914 77.0871 122.369 77.2495 119.221L77.5921 112.422L84.1213 110.501C84.3829 110.429 110.869 102.664 183.637 83.9061C260.761 64.03 297.366 56.599 297.727 56.5268L299.621 56.1481L301.514 56.5268C301.875 56.599 338.489 64.03 415.604 83.9061C488.372 102.664 514.858 110.42 515.12 110.501L521.649 112.422L521.992 119.221C522.145 122.369 525.464 197.914 492.196 334.757L492.205 334.766Z" fill="#0D1A20"/>
<path d="M285.677 558.661C256.548 540.634 216.661 515.951 179.812 480.915C135.073 438.376 105.98 390.444 93.3455 338.445C59.5813 199.556 62.9992 122.098 63.1705 118.87L64.0092 102.078L80.1428 97.3341C81.207 97.0184 107.026 89.4521 180.119 70.6131C257.684 50.6197 293.46 43.369 294.948 43.0714L299.628 42.1335L304.309 43.0805C305.797 43.3781 341.644 50.6558 419.138 70.6221C492.23 89.4612 518.049 97.0274 519.114 97.3431L535.247 102.087L536.086 118.879C536.248 122.107 539.675 199.565 505.911 338.454C493.267 390.453 464.175 438.385 419.444 480.924C382.596 515.96 342.708 540.652 313.579 558.67L299.637 567.3L285.695 558.67L285.677 558.661ZM81.7481 119.798C81.5947 122.919 78.3211 197.896 111.418 334.044C123.196 382.508 150.521 427.392 192.627 467.424C228.078 501.134 267.027 525.239 295.462 542.834L299.619 545.404L303.777 542.834C332.22 525.23 371.161 501.134 406.611 467.424C448.717 427.383 476.034 382.508 487.82 334.044C520.935 197.815 517.644 122.919 517.49 119.798L517.31 116.2L513.856 115.181C513.594 115.109 487.126 107.353 414.484 88.6315C337.577 68.8094 300.99 61.3784 300.629 61.3063L299.628 61.1079L298.627 61.3063C298.266 61.3784 261.68 68.8094 184.772 88.6315C112.139 107.353 85.662 115.109 85.4004 115.181L81.9374 116.2L81.7571 119.798H81.7481Z" fill="#0D1A20"/>
<path fill-rule="evenodd" clip-rule="evenodd" d="M520.603 127.852L519.954 114.902L507.508 111.24C506.498 110.943 481.879 103.728 412.402 85.8268C338.687 66.8255 304.644 59.9175 303.228 59.6379L299.62 58.9075L296.013 59.6379L295.981 59.6446C294.143 60.0189 260.064 66.9607 186.839 85.8268C117.353 103.737 92.7425 110.943 91.7325 111.24L79.2873 114.902L78.638 127.852C78.4847 130.909 75.2652 204.164 107.271 335.821C119.112 384.546 146.428 429.511 188.435 469.462C223.218 502.541 261.004 525.925 288.6 542.996L299.62 549.823L310.641 542.996C338.227 525.925 376.014 502.541 410.806 469.462C452.822 429.511 480.129 384.546 491.97 335.821C523.976 204.164 520.756 130.909 520.603 127.852ZM483.096 333.656C471.67 380.65 445.229 424.109 404.511 462.833C370.419 495.258 333.099 518.351 305.847 535.215L305.834 535.223L305.03 535.72V370.505H300.931C349.338 369.836 388.809 332.178 392.356 284.518H494.019C490.938 299.837 487.324 316.224 483.087 333.656H483.096ZM298.308 370.505H294.208V535.725L293.398 535.223C266.145 518.359 228.827 495.263 194.721 462.833C153.994 424.109 127.562 380.65 116.136 333.656C111.899 316.225 108.285 299.837 105.203 284.518H206.883C210.43 332.178 249.901 369.836 298.308 370.505ZM299.597 539.064L299.611 539.073L299.626 539.064H299.597ZM96.821 237.714C98.4192 247.963 100.289 258.902 102.477 270.518H206.883C210.329 224.211 247.689 187.346 294.208 184.677V69.3387C283.585 71.6019 249.294 79.1517 189.111 94.6647C119.788 112.53 94.5462 119.925 94.3027 119.997L88.0801 121.828L87.7554 128.303C87.6589 130.311 86.2112 163.169 94.7422 223.714H171.852C173.565 222.035 175.912 221 178.5 221C183.747 221 188 225.253 188 230.5C188 235.747 183.747 240 178.5 240C176.139 240 173.979 239.139 172.318 237.714H96.821ZM305.03 69.3421C315.672 71.6093 349.958 79.1593 410.112 94.6647C479.444 112.53 504.677 119.925 504.92 119.997L511.143 121.828L511.467 128.303C511.57 130.311 513.016 163.166 504.482 223.714H427.127C425.495 222.289 423.361 221.427 421.025 221.427C415.896 221.427 411.738 225.585 411.738 230.713C411.738 235.842 415.896 240 421.025 240C423.361 240 425.495 239.137 427.127 237.714H502.403C500.804 247.963 498.934 258.902 496.746 270.518H392.356C388.909 224.211 351.549 187.346 305.03 184.677V69.3421ZM178.435 234.055C180.281 234.055 181.777 232.559 181.777 230.713C181.777 228.868 180.281 227.371 178.435 227.371C176.59 227.371 175.093 228.868 175.093 230.713C175.093 232.559 176.59 234.055 178.435 234.055ZM186.551 356.067C186.551 360.549 182.917 364.183 178.435 364.183C173.952 364.183 170.318 360.549 170.318 356.067C170.318 351.584 173.952 347.95 178.435 347.95C182.917 347.95 186.551 351.584 186.551 356.067ZM181.777 356.067C181.777 357.912 180.281 359.409 178.435 359.409C176.59 359.409 175.093 357.912 175.093 356.067C175.093 354.221 176.59 352.725 178.435 352.725C180.281 352.725 181.777 354.221 181.777 356.067ZM417.2 230.713C417.2 232.825 418.912 234.537 421.024 234.537C423.135 234.537 424.847 232.825 424.847 230.713C424.847 228.602 423.135 226.89 421.024 226.89C418.912 226.89 417.2 228.602 417.2 230.713ZM419.856 366.52C414.728 366.52 410.571 362.363 410.571 357.235C410.571 352.107 414.728 347.95 419.856 347.95C424.984 347.95 429.141 352.107 429.141 357.235C429.141 362.363 424.984 366.52 419.856 366.52ZM419.855 361.059C417.743 361.059 416.032 359.347 416.032 357.235C416.032 355.124 417.743 353.412 419.855 353.412C421.966 353.412 423.678 355.124 423.678 357.235C423.678 359.347 421.966 361.059 419.855 361.059ZM219.637 276.277V278.741C220.296 322.353 255.86 357.501 299.619 357.501C343.8 357.501 379.611 321.689 379.611 277.509C379.611 233.329 343.8 197.518 299.619 197.518C255.851 197.518 220.296 232.665 219.637 276.277Z" fill="white"/>
<path fill-rule="evenodd" clip-rule="evenodd" d="M254.185 147.638C254.185 143.215 257.77 139.629 262.194 139.629C266.617 139.629 270.202 143.215 270.202 147.638C270.202 148.97 269.877 150.227 269.302 151.332V199.15H255.302V151.72C254.592 150.525 254.185 149.129 254.185 147.638ZM265.493 147.638C265.493 149.399 264.114 150.837 262.377 150.931H262.013C260.276 150.837 258.897 149.399 258.897 147.638C258.897 145.817 260.374 144.341 262.195 144.341C264.016 144.341 265.493 145.817 265.493 147.638ZM253.284 407.578C253.284 412.001 256.87 415.587 261.293 415.587C265.716 415.587 269.302 412.001 269.302 407.578C269.302 406.245 268.976 404.988 268.4 403.883V356.067H254.4V403.497C253.691 404.692 253.284 406.088 253.284 407.578ZM261.475 404.285H261.113C259.376 404.379 257.996 405.817 257.996 407.578C257.996 409.399 259.473 410.876 261.294 410.876C263.115 410.876 264.592 409.399 264.592 407.578C264.592 405.817 263.212 404.379 261.475 404.285ZM337.048 415.587C332.625 415.587 329.039 412.001 329.039 407.578C329.039 406.088 329.446 404.693 330.154 403.499V356.067H344.154V403.881C344.731 404.987 345.057 406.245 345.057 407.578C345.057 412.001 341.471 415.587 337.048 415.587ZM333.751 407.578C333.751 405.817 335.131 404.379 336.868 404.285H337.23C338.967 404.379 340.347 405.817 340.347 407.578C340.347 409.399 338.871 410.876 337.049 410.876C335.228 410.876 333.751 409.399 333.751 407.578ZM198.998 183.2C195.609 180.357 195.167 175.306 198.011 171.917C200.854 168.529 205.905 168.087 209.294 170.93C210.314 171.786 211.067 172.843 211.544 173.994L248.176 204.731L239.177 215.456L202.843 184.969C201.471 184.744 200.14 184.159 198.998 183.2ZM206.767 179.066L206.572 179.298C205.386 180.589 203.383 180.729 202.026 179.591C200.631 178.42 200.449 176.34 201.62 174.945C202.791 173.549 204.871 173.368 206.266 174.538C207.622 175.676 207.832 177.674 206.767 179.066ZM403.228 170.114C406.071 173.502 405.629 178.554 402.241 181.397C401.099 182.355 399.768 182.94 398.396 183.165L362.063 213.652L353.064 202.928L389.695 172.191C390.171 171.04 390.925 169.983 391.945 169.127C395.333 166.283 400.385 166.725 403.228 170.114ZM394.676 177.505L394.463 177.251C393.408 175.859 393.62 173.87 394.973 172.735C396.368 171.564 398.448 171.746 399.619 173.141C400.79 174.536 400.608 176.616 399.213 177.787C397.86 178.922 395.864 178.786 394.676 177.505ZM329.039 147.638C329.039 143.215 332.625 139.629 337.048 139.629C341.471 139.629 345.057 143.215 345.057 147.638C345.057 148.972 344.731 150.229 344.154 151.335V199.15H330.154V151.718C329.446 150.523 329.039 149.128 329.039 147.638ZM337.231 150.931H336.867C335.13 150.837 333.751 149.399 333.751 147.638C333.751 145.817 335.228 144.341 337.049 144.341C338.871 144.341 340.347 145.817 340.347 147.638C340.347 149.399 338.968 150.837 337.231 150.931ZM223.523 369.378C223.523 368.924 223.694 368.486 224.002 368.153L241.343 349.409C242.019 348.677 241.975 347.536 241.244 346.86L235.948 341.961C235.216 341.284 234.075 341.328 233.399 342.06L212.98 364.131C212.95 364.164 212.907 364.183 212.862 364.183C212.773 364.183 212.701 364.255 212.701 364.344V388.888C212.129 389.838 211.8 390.95 211.8 392.14C211.8 395.626 214.627 398.452 218.113 398.452C221.6 398.452 224.426 395.626 224.426 392.14C224.426 390.949 224.096 389.835 223.523 388.884V369.378ZM373.911 367.41C374.22 367.743 374.391 368.18 374.391 368.634V388.139C373.818 389.09 373.488 390.203 373.488 391.394C373.488 394.881 376.315 397.707 379.801 397.707C383.287 397.707 386.114 394.881 386.114 391.394C386.114 390.205 385.785 389.092 385.213 388.143V363.6C385.213 363.51 385.14 363.438 385.051 363.438C385.005 363.438 384.962 363.419 384.931 363.386L364.513 341.314C363.837 340.583 362.696 340.539 361.965 341.215L356.669 346.114C355.937 346.791 355.893 347.932 356.569 348.663L373.911 367.41Z" fill="white"/>
</g>
<defs>
<filter id="filter0_d_172_139" x="262.502" y="229.577" width="101.293" height="99.4889" filterUnits="userSpaceOnUse" color-interpolation-filters="sRGB">
<feFlood flood-opacity="0" result="BackgroundImageFix"/>
<feColorMatrix in="SourceAlpha" type="matrix" values="0 0 0 0 0 0 0 0 0 0 0 0 0 0 0 0 0 0 127 0" result="hardAlpha"/>
<feOffset dx="14.4291" dy="1.80364"/>
<feGaussianBlur stdDeviation="6.31275"/>
<feColorMatrix type="matrix" values="0 0 0 0 0.137255 0 0 0 0 0.121569 0 0 0 0 0.12549 0 0 0 0.45 0"/>
<feBlend mode="normal" in2="BackgroundImageFix" result="effect1_dropShadow_172_139"/>
<feBlend mode="normal" in="SourceGraphic" in2="effect1_dropShadow_172_139" result="shape"/>
</filter>
<clipPath id="clip0_172_139">
<rect width="473.24" height="547.442" fill="white" transform="translate(63 26)"/>
</clipPath>
</defs>
</svg>
